X: 21322
T: FREE SUFFRAGE SETT (tune 2)
C:
%R: march, reel
B: Elias Howe "The Musician's Companion" 1843 p.132 #2
S: http://imslp.org/wiki/The_Musician's_Companion_(Howe,_Elias)
Z: 2015 John Chambers <jc:trillian.mit.edu>
M: 2/4
L: 1/16
K: D
% - - - - - - - - - - - - - - - - - - - - - - - - - - - - -
V: 1 name="2"
A2 |\
f4 f4 | f4 gfed | A2e2 A2e2 | c2e2 A2ag |\
f4 f4 | f4 gfed | c2e2 A2ag | d4 d2 H|]
(3(BAG) |\
!f!F2A2 F2Ac | dcde d2AF | F2A2 d2f2 | edcB ABAG |\
F2A2 F2Ac | dcde d2ef | gede edcd | d4- "^D.C."d2 |]
F2 |\
B2cd d2dc | B2 f4 f2 | g3fe2d2 | d2 c4 dc |\
B^ABc dedc | B2f2g3f | feed dccB | B4 "^D.C."z2 |]
% - - - - - - - - - - Dance description - - - - - - - - - -
%%begintext align
%% First two forward and back,
%% cross over,
%% chassa de chassa,
%% cross back,
%% ladies chain,
%% promenade four,
%% next two forward, &c.
%%endtext
% - - - - - - - - - - - - - - - - - - - - - - - - - - - - -
%%sep 1 1 300

%%sep 1 1 500

